ui/src/assets/logo-white.svg

<svg viewBox="0 0 89 24" fill="none" xmlns="http://www.w3.org/2000/svg">
  <rect width="24" height="24" rx="6" fill="#1D4ED8" />
  <path
    d="M0 6C0 2.68629 2.68629 0 6 0H18C21.3137 0 24 2.68629 24 6V18C24 21.3137 21.3137 24 18 24H6C2.68629 24 0 21.3137 0 18V6Z"
    fill="#1D4ED8" />
  <path
    d="M13.8854 12.0001C13.8854 13.0465 13.037 13.8949 11.9906 13.8949C10.9441 13.8949 10.0957 13.0465 10.0957 12.0001C10.0957 10.9536 10.9441 10.1052 11.9906 10.1052C13.037 10.1052 13.8854 10.9536 13.8854 12.0001Z"
    fill="white" />
  <path fill-rule="evenodd" clip-rule="evenodd"
    d="M7.58968 9.36279C8.08026 9.54475 8.33045 10.09 8.14849 10.5805C7.9844 11.0229 7.89433 11.5023 7.89433 12.0048C7.89433 14.2684 9.73148 16.1051 11.9998 16.1051C14.268 16.1051 16.1052 14.2684 16.1052 12.0048C16.1052 11.5023 16.0151 11.0229 15.851 10.5805C15.6691 10.09 15.9192 9.54475 16.4098 9.36279C16.9004 9.18083 17.4456 9.43101 17.6276 9.92159C17.8687 10.5717 18 11.274 18 12.0048C18 15.3167 15.3127 17.9999 11.9998 17.9999C8.68682 17.9999 5.99951 15.3167 5.99951 12.0048C5.99951 11.274 6.13081 10.5717 6.37194 9.92159C6.5539 9.43101 7.09911 9.18083 7.58968 9.36279Z"
    fill="white" />
  <path fill-rule="evenodd" clip-rule="evenodd"
    d="M11.9927 7.89481C11.3649 7.89481 10.7726 8.03489 10.243 8.28454C9.7697 8.50765 9.20516 8.30483 8.98206 7.83154C8.75895 7.35825 8.96177 6.79371 9.43506 6.57061C10.2121 6.20432 11.0799 6 11.9927 6C12.9056 6 13.7733 6.20432 14.5504 6.57061C15.0237 6.79371 15.2265 7.35825 15.0034 7.83154C14.7803 8.30483 14.2157 8.50765 13.7424 8.28454C13.2128 8.03489 12.6205 7.89481 11.9927 7.89481Z"
    fill="white" />
  <path
    d="M0 6C0 2.68629 2.68629 0 6 0H18C21.3137 0 24 2.68629 24 6V18C24 21.3137 21.3137 24 18 24H6C2.68629 24 0 21.3137 0 18V6Z"
    fill="#1D4ED8" />
  <path
    d="M13.8854 12.0001C13.8854 13.0465 13.037 13.8949 11.9906 13.8949C10.9441 13.8949 10.0957 13.0465 10.0957 12.0001C10.0957 10.9536 10.9441 10.1052 11.9906 10.1052C13.037 10.1052 13.8854 10.9536 13.8854 12.0001Z"
    fill="white" />
  <path fill-rule="evenodd" clip-rule="evenodd"
    d="M7.58968 9.36279C8.08026 9.54475 8.33045 10.09 8.14849 10.5805C7.9844 11.0229 7.89433 11.5023 7.89433 12.0048C7.89433 14.2684 9.73148 16.1051 11.9998 16.1051C14.268 16.1051 16.1052 14.2684 16.1052 12.0048C16.1052 11.5023 16.0151 11.0229 15.851 10.5805C15.6691 10.09 15.9192 9.54475 16.4098 9.36279C16.9004 9.18083 17.4456 9.43101 17.6276 9.92159C17.8687 10.5717 18 11.274 18 12.0048C18 15.3167 15.3127 17.9999 11.9998 17.9999C8.68682 17.9999 5.99951 15.3167 5.99951 12.0048C5.99951 11.274 6.13081 10.5717 6.37194 9.92159C6.5539 9.43101 7.09911 9.18083 7.58968 9.36279Z"
    fill="white" />
  <path fill-rule="evenodd" clip-rule="evenodd"
    d="M11.9927 7.89481C11.3649 7.89481 10.7726 8.03489 10.243 8.28454C9.7697 8.50765 9.20516 8.30483 8.98206 7.83154C8.75895 7.35825 8.96177 6.79371 9.43506 6.57061C10.2121 6.20432 11.0799 6 11.9927 6C12.9056 6 13.7733 6.20432 14.5504 6.57061C15.0237 6.79371 15.2265 7.35825 15.0034 7.83154C14.7803 8.30483 14.2157 8.50765 13.7424 8.28454C13.2128 8.03489 12.6205 7.89481 11.9927 7.89481Z"
    fill="white" />
  <path
    d="M28.32 13.84L30.192 13.456V14.512C30.192 15.184 30.3573 15.6747 30.688 15.984C31.0187 16.2827 31.4347 16.432 31.936 16.432C32.448 16.432 32.8533 16.272 33.152 15.952C33.4507 15.6213 33.6 15.168 33.6 14.592V6.656H35.52V14.544C35.52 15.0453 35.4347 15.52 35.264 15.968C35.0933 16.416 34.8533 16.8107 34.544 17.152C34.2347 17.4827 33.8613 17.7493 33.424 17.952C32.9867 18.144 32.496 18.24 31.952 18.24C31.3973 18.24 30.896 18.1547 30.448 17.984C30 17.8027 29.616 17.552 29.296 17.232C28.9867 16.912 28.7467 16.528 28.576 16.08C28.4053 15.632 28.32 15.1307 28.32 14.576V13.84ZM42.9919 13.248C42.9812 13.024 42.9332 12.8107 42.8479 12.608C42.7732 12.3947 42.6559 12.208 42.4959 12.048C42.3359 11.888 42.1385 11.76 41.9039 11.664C41.6692 11.568 41.3919 11.52 41.0719 11.52C40.7839 11.52 40.5225 11.5733 40.2879 11.68C40.0639 11.776 39.8719 11.9093 39.7119 12.08C39.5519 12.24 39.4239 12.4267 39.3279 12.64C39.2319 12.8427 39.1785 13.0453 39.1679 13.248H42.9919ZM44.7679 15.776C44.6612 16.1173 44.5065 16.4373 44.3039 16.736C44.1012 17.0347 43.8505 17.296 43.5519 17.52C43.2532 17.744 42.9119 17.92 42.5279 18.048C42.1439 18.176 41.7172 18.24 41.2479 18.24C40.7145 18.24 40.2079 18.1493 39.7279 17.968C39.2479 17.776 38.8265 17.504 38.4639 17.152C38.1012 16.7893 37.8079 16.352 37.5839 15.84C37.3705 15.3173 37.2639 14.7253 37.2639 14.064C37.2639 13.4453 37.3652 12.8853 37.5679 12.384C37.7812 11.8827 38.0639 11.456 38.4159 11.104C38.7679 10.7413 39.1732 10.464 39.6319 10.272C40.0905 10.0693 40.5652 9.968 41.0559 9.968C41.6532 9.968 42.1865 10.064 42.6559 10.256C43.1359 10.448 43.5359 10.72 43.8559 11.072C44.1865 11.424 44.4372 11.8507 44.6079 12.352C44.7785 12.8427 44.8639 13.3973 44.8639 14.016C44.8639 14.1653 44.8585 14.2987 44.8479 14.416C44.8372 14.5227 44.8265 14.5867 44.8159 14.608H39.1199C39.1305 14.9067 39.1945 15.1787 39.3119 15.424C39.4292 15.6693 39.5839 15.8827 39.7759 16.064C39.9679 16.2453 40.1865 16.3893 40.4319 16.496C40.6879 16.592 40.9599 16.64 41.2479 16.64C41.8132 16.64 42.2452 16.512 42.5439 16.256C42.8532 15.9893 43.0719 15.664 43.1999 15.28L44.7679 15.776ZM48.9895 10.208H50.6055V11.856H48.9895V15.472C48.9895 15.8133 49.0695 16.064 49.2295 16.224C49.3895 16.3733 49.6402 16.448 49.9815 16.448C50.1095 16.448 50.2375 16.4427 50.3655 16.432C50.4935 16.4107 50.5788 16.3947 50.6215 16.384V17.92C50.5682 17.9413 50.4508 17.9733 50.2695 18.016C50.0882 18.0693 49.8268 18.096 49.4855 18.096C48.7602 18.096 48.1895 17.8933 47.7735 17.488C47.3575 17.0827 47.1495 16.512 47.1495 15.776V11.856H45.7095V10.208H46.1095C46.5255 10.208 46.8295 10.0907 47.0215 9.856C47.2135 9.62133 47.3095 9.33333 47.3095 8.992V7.824H48.9895V10.208ZM56.0653 13.088L54.5613 14.736V18H52.6413V6.656H54.5613V12.096L59.4413 6.656H61.9693L57.3773 11.664L62.0173 18H59.6013L56.0653 13.088ZM70.6701 6.656H72.7021L68.4141 18H66.4621L62.2381 6.656H64.3181L67.4861 15.488L70.6701 6.656ZM84.7954 18V9.648L81.2594 18H79.5954L76.0914 9.68V18H74.2194V6.656H76.7794L80.4594 15.312L84.0914 6.656H86.6994V18H84.7954Z"
    fill="white" />
</svg>

<svg xmlns="http://www.w3.org/2000/svg" fill="none" viewBox="0 0 89 24"><rect width="24" height="24" fill="#1D4ED8" rx="6"/><path fill="#1D4ED8" d="M0 6a6 6 0 0 1 6-6h12a6 6 0 0 1 6 6v12a6 6 0 0 1-6 6H6a6 6 0 0 1-6-6V6Z"/><path fill="#fff" d="M13.885 12a1.895 1.895 0 1 1-3.79 0 1.895 1.895 0 0 1 3.79 0Z"/><path fill="#fff" fill-rule="evenodd" d="M7.59 9.363c.49.182.74.727.558 1.218A4.103 4.103 0 0 0 12 16.105a4.103 4.103 0 0 0 3.852-5.526.947.947 0 0 1 1.777-.658A5.998 5.998 0 0 1 12 18a5.998 5.998 0 0 1-5.628-8.078.947.947 0 0 1 1.218-.56ZM11.993 7.895c-.628 0-1.22.14-1.75.39a.947.947 0 1 1-.808-1.714A5.985 5.985 0 0 1 11.993 6c.913 0 1.78.204 2.557.57a.947.947 0 1 1-.808 1.715 4.09 4.09 0 0 0-1.75-.39Z" clip-rule="evenodd"/><path fill="#1D4ED8" d="M0 6a6 6 0 0 1 6-6h12a6 6 0 0 1 6 6v12a6 6 0 0 1-6 6H6a6 6 0 0 1-6-6V6Z"/><path fill="#fff" d="M13.885 12a1.895 1.895 0 1 1-3.79 0 1.895 1.895 0 0 1 3.79 0Z"/><path fill="#fff" fill-rule="evenodd" d="M7.59 9.363c.49.182.74.727.558 1.218A4.103 4.103 0 0 0 12 16.105a4.103 4.103 0 0 0 3.852-5.526.947.947 0 0 1 1.777-.658A5.998 5.998 0 0 1 12 18a5.998 5.998 0 0 1-5.628-8.078.947.947 0 0 1 1.218-.56ZM11.993 7.895c-.628 0-1.22.14-1.75.39a.947.947 0 1 1-.808-1.714A5.985 5.985 0 0 1 11.993 6c.913 0 1.78.204 2.557.57a.947.947 0 1 1-.808 1.715 4.09 4.09 0 0 0-1.75-.39Z" clip-rule="evenodd"/><path fill="#fff" d="m28.32 13.84 1.872-.384v1.056c0 .672.165 1.163.496 1.472.33.299.747.448 1.248.448.512 0 .917-.16 1.216-.48.299-.33.448-.784.448-1.36V6.656h1.92v7.888c0 .501-.085.976-.256 1.424-.17.448-.41.843-.72 1.184a3.57 3.57 0 0 1-1.12.8 3.625 3.625 0 0 1-1.472.288 4.196 4.196 0 0 1-1.504-.256 3.424 3.424 0 0 1-1.152-.752c-.31-.32-.55-.704-.72-1.152a4.196 4.196 0 0 1-.256-1.504v-.736Zm14.672-.592a1.866 1.866 0 0 0-.144-.64 1.469 1.469 0 0 0-.352-.56 1.776 1.776 0 0 0-.592-.384 2.19 2.19 0 0 0-.832-.144c-.288 0-.55.053-.784.16-.224.096-.416.23-.576.4-.16.16-.288.347-.384.56a1.61 1.61 0 0 0-.16.608h3.824Zm1.776 2.528a3.633 3.633 0 0 1-.464.96c-.203.299-.454.56-.752.784-.299.224-.64.4-1.024.528s-.81.192-1.28.192c-.533 0-1.04-.09-1.52-.272a3.846 3.846 0 0 1-1.264-.816 4.23 4.23 0 0 1-.88-1.312c-.214-.523-.32-1.115-.32-1.776 0-.619.101-1.179.304-1.68.213-.501.496-.928.848-1.28.352-.363.757-.64 1.216-.832a3.487 3.487 0 0 1 1.424-.304c.597 0 1.13.096 1.6.288.48.192.88.464 1.2.816.33.352.581.779.752 1.28.17.49.256 1.045.256 1.664 0 .15-.005.283-.016.4a.814.814 0 0 1-.032.192H39.12c.01.299.075.57.192.816.117.245.272.459.464.64s.41.325.656.432c.256.096.528.144.816.144.565 0 .997-.128 1.296-.384.31-.267.528-.592.656-.976l1.568.496Zm4.221-5.568h1.617v1.648h-1.617v3.616c0 .341.08.592.24.752.16.15.411.224.752.224.128 0 .256-.005.384-.016.128-.021.214-.037.256-.048v1.536c-.053.021-.17.053-.352.096-.18.053-.442.08-.783.08-.726 0-1.296-.203-1.712-.608-.416-.405-.624-.976-.624-1.712v-3.92h-1.44v-1.648h.4c.416 0 .72-.117.912-.352a1.32 1.32 0 0 0 .288-.864V7.824h1.68v2.384Zm7.076 2.88-1.504 1.648V18h-1.92V6.656h1.92v5.44l4.88-5.44h2.528l-4.592 5.008L62.017 18h-2.416l-3.536-4.912ZM70.67 6.656h2.032L68.414 18h-1.952L62.238 6.656h2.08l3.168 8.832 3.184-8.832ZM84.795 18V9.648L81.26 18h-1.664l-3.504-8.32V18H74.22V6.656h2.56l3.68 8.656 3.632-8.656H86.7V18h-1.904Z"/></svg>
